web/assets/img/functions/990-closed.svg

<svg width="512" height="512" viewBox="0 0 512 512" fill="none" xmlns="http://www.w3.org/2000/svg">
    <path fill-rule="evenodd" clip-rule="evenodd"
          d="M247.279 133.293C251.859 127.064 250.523 118.301 244.293 113.721C238.064 109.14 229.301 110.477 224.721 116.706L184.721 171.106C182.953 173.51 182 176.416 182 179.4V275.4C182 283.132 188.268 289.4 196 289.4C203.732 289.4 210 283.132 210 275.4V183.993L247.279 133.293ZM244.057 130.924L206 182.681V182.68L244.057 130.924C244.763 129.963 245.272 128.918 245.592 127.837C245.272 128.918 244.763 129.963 244.057 130.924ZM190.526 283.77C192.099 284.801 193.98 285.4 196 285.4C197.609 285.4 199.129 285.02 200.475 284.345C199.129 285.02 197.609 285.4 196 285.4C193.98 285.4 192.099 284.801 190.526 283.77ZM266.243 127.204C266.537 128.509 267.1 129.776 267.943 130.924L306 182.68V182.681L267.943 130.924C267.1 129.777 266.537 128.509 266.243 127.204ZM326 275.4V275.4V275.4ZM306 275.4V275.4C306 276.09 306.07 276.764 306.203 277.415C306.07 276.764 306 276.09 306 275.4ZM307.003 279.77C308.625 283.103 312.044 285.4 316 285.4C320.142 285.4 323.696 282.881 325.214 279.292C323.696 282.881 320.142 285.4 316 285.4C312.044 285.4 308.625 283.103 307.003 279.77ZM264.721 133.293C260.141 127.064 261.477 118.301 267.707 113.721C273.936 109.14 282.699 110.477 287.279 116.706L327.279 171.106C329.047 173.51 330 176.416 330 179.4V275.4C330 283.132 323.732 289.4 316 289.4C308.268 289.4 302 283.132 302 275.4V183.993L264.721 133.293Z"
          fill="#282828"/>
    <path d="M236 45H276V125H236V45Z" fill="#282828"/>
    <path fill-rule="evenodd" clip-rule="evenodd"
          d="M226 45C226 39.4772 230.477 35 236 35H276C281.523 35 286 39.4772 286 45V125C286 130.523 281.523 135 276 135H236C230.477 135 226 130.523 226 125V45ZM246 55V115H266V55H246Z"
          fill="#282828"/>
    <path fill-rule="evenodd" clip-rule="evenodd"
          d="M210 307.6V270H182V307.6C182 315.073 188.95 320 196 320C203.05 320 210 315.073 210 307.6Z" fill="#12A71E"/>
    <path fill-rule="evenodd" clip-rule="evenodd"
          d="M330 307.6V270H302V307.6C302 315.073 308.95 320 316 320C323.05 320 330 315.073 330 307.6Z" fill="#12A71E"/>
    <path fill-rule="evenodd" clip-rule="evenodd"
          d="M70 363.743V282.677C77.046 276.239 83.0252 274 88 274C93.6244 274 100.533 276.862 108.815 285.418C109.043 285.653 109.282 285.877 109.531 286.089C119.038 294.153 129.903 298.535 141.875 298.535C153.639 298.535 165.509 294.308 177.298 286.944C177.483 286.829 177.663 286.708 177.84 286.58C185.873 280.801 193.207 278.391 200 278.391C206.774 278.391 214.087 280.788 222.094 286.533C232.98 294.638 244.516 299.31 256.538 299.31C268.62 299.31 279.894 294.592 290.195 286.314C298.219 280.115 305.434 277.616 312 277.616C318.585 277.616 325.823 280.129 333.875 286.368C344.49 294.592 355.919 299.31 368 299.31C380.081 299.31 391.51 294.592 402.125 286.368C410.177 280.129 417.415 277.616 424 277.616C429.511 277.616 435.48 279.376 442 283.608V366.465C436.186 364.16 430.179 362.926 424.002 362.926C411.92 362.926 400.491 367.644 389.877 375.869C381.825 382.107 374.587 384.621 368.002 384.621C361.416 384.621 354.178 382.107 346.126 375.869C335.512 367.644 324.083 362.926 312.002 362.926C299.92 362.926 288.491 367.644 277.877 375.869L277.801 375.927L277.727 375.987C270.101 382.132 263.094 384.621 256.54 384.621C249.923 384.621 242.458 382.083 233.982 375.759L233.912 375.707L233.842 375.656C223.207 368.005 211.875 363.701 200.002 363.701C188.232 363.701 176.995 367.93 166.443 375.455C156.845 381.403 148.717 383.846 141.877 383.846C135.304 383.846 129.029 381.598 122.816 376.438C112.523 365.93 100.889 359.311 88.0015 359.311C81.6977 359.311 75.6938 360.894 70 363.743ZM70 387.989V492H442V388.917C435.48 384.686 429.512 382.926 424.002 382.926C417.416 382.926 410.178 385.44 402.126 391.678C391.512 399.903 380.083 404.621 368.002 404.621C355.92 404.621 344.491 399.903 333.877 391.678C325.825 385.44 318.587 382.926 312.002 382.926C305.435 382.926 298.22 385.425 290.197 391.624C279.895 399.902 268.621 404.621 256.54 404.621C244.517 404.621 232.982 399.948 222.096 391.844C214.089 386.099 206.776 383.701 200.002 383.701C193.209 383.701 185.874 386.112 177.842 391.891L177.576 392.082L177.299 392.255C165.511 399.619 153.641 403.846 141.877 403.846C129.904 403.846 119.04 399.463 109.533 391.4L109.158 391.082L108.816 390.729C100.534 382.172 93.626 379.311 88.0015 379.311C83.0264 379.311 77.0467 381.55 70 387.989ZM88 254C100.887 254 112.521 260.62 122.814 271.127C129.028 276.287 135.303 278.535 141.875 278.535C148.716 278.535 156.843 276.092 166.441 270.144C176.994 262.619 188.231 258.391 200 258.391C211.874 258.391 223.206 262.695 233.84 270.346C233.887 270.379 233.934 270.413 233.98 270.448C242.457 276.773 249.922 279.31 256.538 279.31C263.093 279.31 270.099 276.821 277.726 270.676C277.775 270.636 277.825 270.597 277.875 270.558C288.49 262.334 299.919 257.616 312 257.616C324.081 257.616 335.51 262.334 346.125 270.558C354.177 276.797 361.415 279.31 368 279.31C374.585 279.31 381.823 276.797 389.875 270.558C400.49 262.334 411.919 257.616 424 257.616C436.081 257.616 447.51 262.334 458.125 270.558C460.569 272.452 462 275.371 462 278.463V502C462 507.523 457.523 512 452 512H60C54.4772 512 50 507.523 50 502V278.463C50 275.867 51.0094 273.373 52.8149 271.508C63.1992 260.78 74.9577 254 88 254Z"
          fill="#282828"/>
</svg>

<?xml version="1.0" encoding="utf-8"?>
<!-- Generator: Adobe Illustrator 28.2.0, SVG Export Plug-In . SVG Version: 6.00 Build 0)  -->
<svg version="1.1" id="Calque_1" xmlns="http://www.w3.org/2000/svg" xmlns:xlink="http://www.w3.org/1999/xlink" x="0px" y="0px"
	 viewBox="0 0 512 512" style="enable-background:new 0 0 512 512;" xml:space="preserve">
<style type="text/css">
	.st0{fill-rule:evenodd;clip-rule:evenodd;fill:#282828;}
	.st1{fill:#282828;}
	.st2{fill-rule:evenodd;clip-rule:evenodd;fill:#33B0DF;}
</style>
<path class="st0" d="M247.3,133.3c4.6-6.2,3.2-15-3-19.6c-6.2-4.6-15-3.2-19.6,3l-40,54.4c-1.8,2.4-2.7,5.3-2.7,8.3v96
	c0,7.7,6.3,14,14,14s14-6.3,14-14V184L247.3,133.3z M244.1,130.9L206,182.7v0L244.1,130.9c0.7-1,1.2-2,1.5-3.1
	C245.3,128.9,244.8,130,244.1,130.9z M190.5,283.8c1.6,1,3.5,1.6,5.5,1.6c1.6,0,3.1-0.4,4.5-1.1c-1.3,0.7-2.9,1.1-4.5,1.1
	C194,285.4,192.1,284.8,190.5,283.8z M266.2,127.2c0.3,1.3,0.9,2.6,1.7,3.7l38.1,51.8v0l-38.1-51.8
	C267.1,129.8,266.5,128.5,266.2,127.2z M326,275.4L326,275.4L326,275.4z M306,275.4L306,275.4c0,0.7,0.1,1.4,0.2,2
	C306.1,276.8,306,276.1,306,275.4z M307,279.8c1.6,3.3,5,5.6,9,5.6c4.1,0,7.7-2.5,9.2-6.1c-1.5,3.6-5.1,6.1-9.2,6.1
	C312,285.4,308.6,283.1,307,279.8z M264.7,133.3c-4.6-6.2-3.2-15,3-19.6c6.2-4.6,15-3.2,19.6,3l40,54.4c1.8,2.4,2.7,5.3,2.7,8.3v96
	c0,7.7-6.3,14-14,14s-14-6.3-14-14V184L264.7,133.3z"/>
<path class="st1" d="M236,45h40v80h-40V45z"/>
<path class="st0" d="M226,45c0-5.5,4.5-10,10-10h40c5.5,0,10,4.5,10,10v80c0,5.5-4.5,10-10,10h-40c-5.5,0-10-4.5-10-10V45z M246,55
	v60h20V55H246z"/>
<path class="st2" d="M210,307.6V270h-28v37.6c0,7.5,6.9,12.4,14,12.4S210,315.1,210,307.6z"/>
<path class="st2" d="M330,307.6V270h-28v37.6c0,7.5,7,12.4,14,12.4S330,315.1,330,307.6z"/>
<path class="st0" d="M70,282.7V492h372V283.6c-6.5-4.2-12.5-6-18-6c-6.6,0-13.8,2.5-21.9,8.8c-10.6,8.2-22,12.9-34.1,12.9
	s-23.5-4.7-34.1-12.9c-8.1-6.2-15.3-8.8-21.9-8.8c-6.6,0-13.8,2.5-21.8,8.7c-10.3,8.3-21.6,13-33.7,13c-12,0-23.6-4.7-34.4-12.8
	c-8-5.7-15.3-8.1-22.1-8.1c-6.8,0-14.1,2.4-22.2,8.2c-0.2,0.1-0.4,0.2-0.5,0.4c-11.8,7.4-23.7,11.6-35.4,11.6
	c-12,0-22.8-4.4-32.3-12.4c-0.2-0.2-0.5-0.4-0.7-0.7C100.5,276.9,93.6,274,88,274C83,274,77,276.2,70,282.7z M122.8,271.1
	C112.5,260.6,100.9,254,88,254c-13,0-24.8,6.8-35.2,17.5c-1.8,1.9-2.8,4.4-2.8,7V502c0,5.5,4.5,10,10,10h392c5.5,0,10-4.5,10-10
	V278.5c0-3.1-1.4-6-3.9-7.9c-10.6-8.2-22-12.9-34.1-12.9s-23.5,4.7-34.1,12.9c-8.1,6.2-15.3,8.8-21.9,8.8s-13.8-2.5-21.9-8.8
	c-10.6-8.2-22-12.9-34.1-12.9s-23.5,4.7-34.1,12.9c0,0-0.1,0.1-0.1,0.1c-7.6,6.1-14.6,8.6-21.2,8.6c-6.6,0-14.1-2.5-22.6-8.9
	c0,0-0.1-0.1-0.1-0.1c-10.6-7.7-22-12-33.8-12c-11.8,0-23,4.2-33.6,11.8c-9.6,5.9-17.7,8.4-24.6,8.4
	C135.3,278.5,129,276.3,122.8,271.1z"/>
</svg>
